!!! OTL: Literature13
!!! Chapter: 5
!!! Section: I
!!! Page: 347
!!! Mode: 
!!! Encoder: DJB
**kern
*staff1
*I"Piano
=1-
*clefG2
*k[f#]
*G:
*M2/4
8d/L
8g/J
8f#/L
8e/J
=2
8f#/L
8g/J
8a/L
8a/J
=3
8f#/L
8a/J
8d/L
8d/J
=4
8e/L
8f#/J
4g/
=5
8d/L
8g/J
8f#/L
8e/J
=6
8f#/L
8g/J
8a/L
8a/J
=7
8f#/L
8a/J
8d/L
8d/J
=8
8e/L
8f#/J
4g/
=9
4b\
4g/
=10
8a/L
8b/J
4cc\
=11
!!linebreak:original
4a/
4f#/
=12
8g/L
8b/J
4dd\
=13
4b\
4g/
=14
8a/L
8b/J
4cc\
=15
4a/
4f#/
=16
4g/
4r
==
*-
